img/icons/file/movie.svg

<svg fill="none" viewBox="0 0 16 16" xmlns="http://www.w3.org/2000/svg"><path d="m4 1c-1.66 0-3 1.34-3 3v7c0 1.66 1.34 3 3 3h8c1.66 0 3-1.34 3-3v-7c0-1.66-1.34-3-3-3h-8zm-2 6v-2h2v2h-2zm0-3h2v-2c-1.1 0-2 0.895-2 2zm3-2h6v5h-6v-5zm7 2v-2c1.1 0 2 0.895 2 2h-2zm0 1h2v2h-2v-2zm0 3h2v2h-2v-2zm0 3h2c0 1.1-0.895 2-2 2v-2zm-1 2h-6v-5h6v5zm-7-2v2c-1.1 0-2-0.895-2-2h2zm0-1h-2v-2h2v2z" clip-rule="evenodd" fill="#000" fill-rule="evenodd"/></svg>

<svg xmlns="http://www.w3.org/2000/svg" viewBox="0 0 16 16" fill="none">
  <path fill="#000" fill-rule="evenodd"
    d="M4 1a3 3 0 0 0-3 3v7a3 3 0 0 0 3 3h8a3 3 0 0 0 3-3V4a3 3 0 0 0-3-3H4ZM2 7V5h2v2H2Zm0-3h2V2a2 2 0 0 0-2 2Zm3-2h6v5H5V2Zm7 2V2a2 2 0 0 1 2 2h-2Zm0 1h2v2h-2V5Zm0 3h2v2h-2V8Zm0 3h2a2 2 0 0 1-2 2v-2Zm-1 2H5V8h6v5Zm-7-2v2a2 2 0 0 1-2-2h2Zm0-1H2V8h2v2Z"
    clip-rule="evenodd" />
</svg>
